contribs/icons/thangs.svg

<?xml version="1.0" encoding="UTF-8" standalone="no"?>
<svg
   viewBox="-3 -3 158 158"
   version="1.1"
   id="svg3"
   sodipodi:docname="thangs.svg"
   inkscape:version="1.4.3 (0d15f75042, 2025-12-25)"
   width="158"
   height="158"
   xml:space="preserve"
   xmlns:inkscape="http://www.inkscape.org/namespaces/inkscape"
   xmlns:sodipodi="http://sodipodi.sourceforge.net/DTD/sodipodi-0.dtd"
   xmlns="http://www.w3.org/2000/svg"
   xmlns:svg="http://www.w3.org/2000/svg"><defs
     id="defs1"><inkscape:path-effect
       effect="mirror_symmetry"
       start_point="127.20494,59.393244"
       end_point="127.20494,92.576051"
       center_point="127.20494,75.984648"
       id="path-effect2"
       is_visible="true"
       lpeversion="1.2"
       lpesatellites=""
       mode="free"
       discard_orig_path="true"
       fuse_paths="false"
       oposite_fuse="false"
       split_items="false"
       split_open="false"
       link_styles="false" /><rect
       x="21.36598"
       y="21.666908"
       width="113.45034"
       height="114.65406"
       id="rect3" /><rect
       x="44.236607"
       y="45.440323"
       width="66.204445"
       height="61.389576"
       id="rect2" /></defs><sodipodi:namedview
     id="namedview3"
     pagecolor="#505050"
     bordercolor="#ffffff"
     borderopacity="1"
     inkscape:showpageshadow="0"
     inkscape:pageopacity="0"
     inkscape:pagecheckerboard="1"
     inkscape:deskcolor="#505050"
     inkscape:zoom="3.3230397"
     inkscape:cx="58.681213"
     inkscape:cy="67.257698"
     inkscape:window-width="1912"
     inkscape:window-height="1147"
     inkscape:window-x="0"
     inkscape:window-y="0"
     inkscape:window-maximized="1"
     inkscape:current-layer="svg3" /><rect
     class="a"
     x="0.49673197"
     y="0.49673459"
     width="151.00653"
     height="151.00653"
     rx="9.9346399"
     id="rect1"
     style="opacity:1;fill:#ffffff;fill-opacity:1;stroke:none;stroke-width:0.993464" /><path
     id="circle1"
     style="display:inline;opacity:1;fill:#9abeff;fill-opacity:1;stroke-width:2.06109;stroke-linejoin:round"
     inkscape:label="right"
     d="m 110.61328,59.392578 c -9.16318,10e-7 -16.591797,7.42862 -16.591796,16.591797 0,5.104959 0.06641,16.5 0.06641,16.5 0,0 12.467166,0.0918 16.525386,0.0918 9.16318,10e-7 16.5918,-7.428618 16.5918,-16.591797 0,-9.16318 -7.42862,-16.5918 -16.5918,-16.591797 z m 0,8.263672 a 8.3289661,8.3289661 0 0 1 8.33008,8.328125 8.3289661,8.3289661 0 0 1 -8.33008,8.330078 8.3289661,8.3289661 0 0 1 -8.32812,-8.330078 8.3289661,8.3289661 0 0 1 8.32812,-8.328125 z" /><path
     id="path3"
     style="display:inline;opacity:1;fill:#a0a5af;fill-opacity:1;stroke-width:2.0611;stroke-linejoin:round"
     inkscape:label="left"
     d="m 41.597656,59.392578 c -9.16328,-3e-6 -16.591797,7.428617 -16.591797,16.591797 0,9.163179 7.428517,16.591798 16.591797,16.591797 16.642164,0.01311 33.284017,0.02773 49.925782,-0.0918 -10e-7,0 0.06641,-11.395041 0.06641,-16.5 0,-9.163177 -7.43047,-16.591796 -16.59375,-16.591797 -6.100203,-2e-6 -26.509492,10e-7 -33.398438,0 z m 0,8.263672 c 4.599352,4.68e-4 8.327661,3.728823 8.328125,8.328125 6.14e-4,4.600064 -3.72801,8.32961 -8.328125,8.330078 -4.60088,6.15e-4 -8.330692,-3.729248 -8.330078,-8.330078 4.65e-4,-4.600067 3.729961,-8.32874 8.330078,-8.328125 z m 33.398438,0 c 4.600081,-5.64e-4 8.329613,3.728094 8.330078,8.328125 6.14e-4,4.600794 -3.729234,8.330642 -8.330078,8.330078 -4.600844,5.64e-4 -8.330692,-3.729284 -8.330078,-8.330078 4.65e-4,-4.600031 3.729997,-8.328689 8.330078,-8.328125 z"
     sodipodi:nodetypes="ssscssscccccccccc" /></svg>

<?xml version="1.0" encoding="UTF-8" standalone="no"?>
<svg
   viewBox="0 0 152 152"
   version="1.1"
   id="svg3"
   sodipodi:docname="thangs.svg"
   inkscape:version="1.4.3 (0d15f75042, 2025-12-25)"
   width="152"
   height="152"
   xml:space="preserve"
   xmlns:inkscape="http://www.inkscape.org/namespaces/inkscape"
   xmlns:sodipodi="http://sodipodi.sourceforge.net/DTD/sodipodi-0.dtd"
   xmlns="http://www.w3.org/2000/svg"
   xmlns:svg="http://www.w3.org/2000/svg"><defs
     id="defs1"><inkscape:path-effect
       effect="mirror_symmetry"
       start_point="127.20494,59.393244"
       end_point="127.20494,92.576051"
       center_point="127.20494,75.984648"
       id="path-effect2"
       is_visible="true"
       lpeversion="1.2"
       lpesatellites=""
       mode="free"
       discard_orig_path="true"
       fuse_paths="false"
       oposite_fuse="false"
       split_items="false"
       split_open="false"
       link_styles="false" /><rect
       x="21.36598"
       y="21.666909"
       width="113.45034"
       height="114.65406"
       id="rect3" /><rect
       x="44.236606"
       y="45.440323"
       width="66.204445"
       height="61.389576"
       id="rect2" /></defs><sodipodi:namedview
     id="namedview3"
     pagecolor="#505050"
     bordercolor="#ffffff"
     borderopacity="1"
     inkscape:showpageshadow="0"
     inkscape:pageopacity="0"
     inkscape:pagecheckerboard="1"
     inkscape:deskcolor="#505050"
     inkscape:zoom="3.3230397"
     inkscape:cx="58.530748"
     inkscape:cy="67.257698"
     inkscape:window-width="1912"
     inkscape:window-height="1147"
     inkscape:window-x="0"
     inkscape:window-y="0"
     inkscape:window-maximized="1"
     inkscape:current-layer="svg3" /><rect
     class="a"
     x="0.49673197"
     y="0.49673459"
     width="151.00653"
     height="151.00653"
     rx="9.9346399"
     id="rect1"
     style="opacity:1;fill:#ffffff;stroke:none;stroke-width:0.993464;fill-opacity:1" /><path
     id="circle1"
     style="display:inline;opacity:1;fill:#9abeff;fill-opacity:1;stroke-width:2.06109;stroke-linejoin:round"
     inkscape:label="right"
     d="M 110.61328 59.392578 C 101.4501 59.392579 94.021483 66.821198 94.021484 75.984375 C 94.021484 81.089334 94.087891 92.484375 94.087891 92.484375 C 94.087891 92.484375 106.55506 92.576172 110.61328 92.576172 C 119.77646 92.576173 127.20508 85.147554 127.20508 75.984375 C 127.20508 66.821195 119.77646 59.392575 110.61328 59.392578 z M 110.61328 67.65625 A 8.3289661 8.3289661 0 0 1 118.94336 75.984375 A 8.3289661 8.3289661 0 0 1 110.61328 84.314453 A 8.3289661 8.3289661 0 0 1 102.28516 75.984375 A 8.3289661 8.3289661 0 0 1 110.61328 67.65625 z " /><path
     id="path3"
     style="display:inline;opacity:1;fill:#a0a5af;fill-opacity:1;stroke-width:2.0611;stroke-linejoin:round"
     inkscape:label="left"
     d="m 41.597656,59.392578 c -9.16328,-3e-6 -16.591797,7.428617 -16.591797,16.591797 0,9.163179 7.428517,16.591798 16.591797,16.591797 16.642164,0.01311 33.284017,0.02773 49.925782,-0.0918 -10e-7,0 0.06641,-11.395041 0.06641,-16.5 0,-9.163177 -7.43047,-16.591796 -16.59375,-16.591797 -6.100203,-2e-6 -26.509492,10e-7 -33.398438,0 z m 0,8.263672 c 4.599352,4.68e-4 8.327661,3.728823 8.328125,8.328125 6.14e-4,4.600064 -3.72801,8.32961 -8.328125,8.330078 -4.60088,6.15e-4 -8.330692,-3.729248 -8.330078,-8.330078 4.65e-4,-4.600067 3.729961,-8.32874 8.330078,-8.328125 z m 33.398438,0 c 4.600081,-5.64e-4 8.329613,3.728094 8.330078,8.328125 6.14e-4,4.600794 -3.729234,8.330642 -8.330078,8.330078 -4.600844,5.64e-4 -8.330692,-3.729284 -8.330078,-8.330078 4.65e-4,-4.600031 3.729997,-8.328689 8.330078,-8.328125 z"
     sodipodi:nodetypes="ssscssscccccccccc" /></svg>
